src/16/actions/distribute-vertical-center.svg

<svg xmlns="http://www.w3.org/2000/svg" width="16" height="16" viewBox="0 0 16 16">
 <defs>
  <style id="current-color-scheme" type="text/css">
   .ColorScheme-Text { color:#565656; } .ColorScheme-Highlight { color:#5294e2; }
  </style>
 </defs>
 <path style="fill:currentColor" class="ColorScheme-Text" d="M 3.0039062 1.0039062 L 3.0039062 2.5039062 L 1.0039062 2.5039062 L 1.0039062 4.5039062 L 3.0039062 4.5039062 L 3.0039062 6.0039062 L 7.0039062 6.0039062 L 7.0039062 4.5039062 L 9.0039062 4.5039062 L 9.0039062 6.0039062 L 13.003906 6.0039062 L 13.003906 4.5039062 L 15.003906 4.5039062 L 15.003906 2.5039062 L 13.003906 2.5039062 L 13.003906 1.0039062 L 9.0039062 1.0039062 L 9.0039062 2.5039062 L 7.0039062 2.5039062 L 7.0039062 1.0039062 L 3.0039062 1.0039062 z M 3.0039062 10.003906 L 3.0039062 11.503906 L 1.0039062 11.503906 L 1.0039062 13.503906 L 3.0039062 13.503906 L 3.0039062 15.003906 L 7.0039062 15.003906 L 7.0039062 13.503906 L 9.0039062 13.503906 L 9.0039062 15.003906 L 13.003906 15.003906 L 13.003906 13.503906 L 15.003906 13.503906 L 15.003906 11.503906 L 13.003906 11.503906 L 13.003906 10.003906 L 9.0039062 10.003906 L 9.0039062 11.503906 L 7.0039062 11.503906 L 7.0039062 10.003906 L 3.0039062 10.003906 z"/>
</svg>

<svg xmlns="http://www.w3.org/2000/svg" width="16" height="16"><defs><style id="current-color-scheme" type="text/css"></style></defs><path d="M3.004 1.004v1.5h-2v2h2v1.5h4v-1.5h2v1.5h4v-1.5h2v-2h-2v-1.5h-4v1.5h-2v-1.5h-4zm0 9v1.5h-2v2h2v1.5h4v-1.5h2v1.5h4v-1.5h2v-2h-2v-1.5h-4v1.5h-2v-1.5h-4z" fill="currentColor" color="#565656"/></svg>
